;FLAVOR:Marlin
;TIME:2836
;Filament used: 3.08881m
;Layer height: 0.3
;MINX:77.9
;MINY:97.4
;MINZ:0.25
;MAXX:155.6
;MAXY:137.6
;MAXZ:8.95
;Generated with Cura_SteamEngine 4.8.0
M140 S50
M105
M190 S50
M104 S200
M105
M109 S200
M82 ;absolute extrusion mode
G28 ;home
G92 E0 ;Reset Extruder
G1 Z4.0 F3000 ;Move Z Axis up
G92 E0 ;Reset Extruder
G1 X1.1 Y20 Z0.28 F5000.0 ;Move to start position
G1 X1.1 Y200.0 Z0.28 F1500.0 E15 ;Draw the first line
G1 X1.4 Y200.0 Z0.28 F5000.0 ;Move to side a little
G1 X1.4 Y20 Z0.28 F1500.0 E30 ;Draw the second line
G92 E0 ;Reset Extruder
G1 Z2.0 F3000 ;Move Z Axis up
G92 E0
G92 E0
G1 F4200 E-5
;LAYER_COUNT:30
;LAYER:0
M107
G0 F2100 X80.78 Y98.182 Z0.25
;TYPE:SKIRT
G1 F4200 E0
G1 F1500 X81.225 Y97.882 E0.02231
G1 X81.709 Y97.652 E0.04459
G1 X82.222 Y97.496 E0.06688
G1 X82.908 Y97.41 E0.09563
G1 X83.33 Y97.4 E0.11318
G1 X151.345 Y97.4 E2.94091
G1 X152.043 Y97.41 E2.96993
G1 X152.577 Y97.458 E2.99223
G1 X153.098 Y97.584 E3.01451
G1 X153.595 Y97.787 E3.03683
G1 X154.056 Y98.061 E3.05913
G1 X154.471 Y98.4 E3.08141
G1 X154.831 Y98.798 E3.10372
G1 X155.128 Y99.244 E3.12599
G1 X155.356 Y99.73 E3.14831
G1 X155.508 Y100.244 E3.1706
G1 X155.59 Y100.909 E3.19845
G1 X155.6 Y101.33 E3.21596
G1 X155.6 Y133.309 E4.54549
G1 X155.591 Y134.036 E4.57572
G1 X155.544 Y134.57 E4.59801
G1 X155.419 Y135.091 E4.62028
G1 X155.217 Y135.588 E4.64259
G1 X154.944 Y136.05 E4.6649
G1 X154.606 Y136.466 E4.68718
G1 X154.209 Y136.827 E4.70949
G1 X153.763 Y137.125 E4.73179
G1 X153.278 Y137.353 E4.75407
G1 X152.764 Y137.507 E4.77638
G1 X152.092 Y137.59 E4.80453
G1 X151.67 Y137.6 E4.82208
G1 X83.661 Y137.6 E7.64957
G1 X82.963 Y137.591 E7.67859
G1 X82.428 Y137.544 E7.70092
G1 X81.907 Y137.418 E7.7232
G1 X81.41 Y137.216 E7.74551
G1 X80.949 Y136.943 E7.76778
G1 X80.533 Y136.604 E7.79009
G1 X80.172 Y136.208 E7.81237
G1 X79.874 Y135.762 E7.83467
G1 X79.646 Y135.276 E7.85699
G1 X79.493 Y134.762 E7.87929
G1 X79.41 Y134.088 E7.90752
G1 X79.4 Y133.658 E7.9254
G1 X79.4 Y129.749 E8.08792
G1 X79.361 Y126.968 E8.20355
G1 X79.245 Y124.24 E8.31707
G1 X79.051 Y121.51 E8.43086
G1 X78.786 Y118.834 E8.54266
G1 X78.437 Y116.106 E8.657
G1 X77.992 Y113.286 E8.77569
G1 X77.91 Y112.59 E8.80483
G1 X77.9 Y112.17 E8.82229
G1 X77.9 Y110.151 E8.90623
G1 X77.911 Y109.445 E8.93559
G1 X77.99 Y108.749 E8.96471
G1 X78.109 Y108.192 E8.98839
G1 X78.651 Y105.491 E9.10293
G1 X79.108 Y102.826 E9.21534
G1 X79.393 Y100.828 E9.29925
G1 X79.454 Y100.444 E9.31541
G1 X79.577 Y99.922 E9.33771
G1 X79.776 Y99.425 E9.35997
G1 X80.048 Y98.962 E9.38229
G1 X80.385 Y98.545 E9.40458
G1 X80.78 Y98.182 E9.42689
G0 F2100 X81.143 Y98.409
G1 F1500 X81.576 Y98.148 E9.44791
G1 X82.044 Y97.958 E9.46891
G1 X82.537 Y97.844 E9.48994
G1 X83.24 Y97.801 E9.51923
G1 X151.339 Y97.8 E12.35045
G1 X152.037 Y97.81 E12.37948
G1 X152.54 Y97.857 E12.40048
G1 X153.03 Y97.983 E12.42151
G1 X153.494 Y98.185 E12.44255
G1 X153.92 Y98.457 E12.46357
G1 X154.298 Y98.792 E12.48457
G1 X154.618 Y99.183 E12.50557
G1 X154.873 Y99.62 E12.52661
G1 X155.056 Y100.091 E12.54762
G1 X155.163 Y100.585 E12.56863
G1 X155.199 Y101.24 E12.5959
G1 X155.2 Y133.304 E13.92897
G1 X155.191 Y134.031 E13.9592
G1 X155.145 Y134.534 E13.9802
G1 X155.02 Y135.024 E14.00122
G1 X154.819 Y135.488 E14.02224
G1 X154.548 Y135.915 E14.04327
G1 X154.213 Y136.294 E14.0643
G1 X153.823 Y136.615 E14.0853
G1 X153.387 Y136.871 E14.10632
G1 X152.916 Y137.054 E14.12733
G1 X152.422 Y137.162 E14.14835
G1 X151.76 Y137.199 E14.17592
G1 X83.666 Y137.2 E17.00694
G1 X82.968 Y137.191 E17.03596
G1 X82.464 Y137.144 E17.057
G1 X81.974 Y137.019 E17.07803
G1 X81.51 Y136.818 E17.09905
G1 X81.084 Y136.547 E17.12004
G1 X80.705 Y136.212 E17.14107
G1 X80.384 Y135.821 E17.1621
G1 X80.129 Y135.385 E17.1831
G1 X79.945 Y134.914 E17.20413
G1 X79.838 Y134.42 E17.22514
G1 X79.801 Y133.744 E17.25329
G1 X79.8 Y129.743 E17.41963
G1 X79.76 Y126.946 E17.53593
G1 X79.645 Y124.229 E17.64899
G1 X79.45 Y121.482 E17.76348
G1 X79.182 Y118.777 E17.87649
G1 X78.834 Y116.059 E17.99042
G1 X78.382 Y113.189 E18.11121
G1 X78.31 Y112.579 E18.13675
G1 X78.3 Y112.17 E18.15376
G1 X78.3 Y110.157 E18.23745
G1 X78.311 Y109.451 E18.2668
G1 X78.382 Y108.832 E18.29271
G1 X78.501 Y108.275 E18.31639
G1 X79.038 Y105.6 E18.42982
G1 X79.505 Y102.879 E18.5446
G1 X79.788 Y100.891 E18.62808
G1 X79.849 Y100.507 E18.64425
G1 X79.967 Y100.015 E18.66528
G1 X80.162 Y99.549 E18.68628
G1 X80.427 Y99.119 E18.70728
G1 X80.757 Y98.736 E18.7283
G1 X81.143 Y98.409 E18.74934
G0 F2100 X81.7 Y109.7
;TYPE:SUPPORT
G1 F1200 X82.1 Y109.7 E18.76597
G1 X82.1 Y112.3 E18.87406
G1 X81.7 Y112.3 E18.89069
G1 X81.7 Y109.7 E18.99879
G1 F4200 E13.99879
;MESH:esp32-body-with-pezinho_.stl
G0 F2100 X116.205 Y117.203
G0 X114.39 Y116.77
G0 X116.171 Y115.573
G0 X117.215 Y115.176
G0 X118.298 Y115.303
G0 X119.252 Y115.947
G0 X120.445 Y118.613
G0 X121.171 Y119.427
G0 X122.22 Y119.824
G0 X125.748 Y119.053
G0 X126.67 Y119.689
G0 X127.814 Y119.817
G0 X128.829 Y119.427
G0 X131.485 Y119.561
G0 X132.22 Y119.824
G0 X134.406 Y120.039
G0 X135 Y119.464
G0 X137.144 Y120.487
;TYPE:WALL-INNER
G1 F4200 E18.99879
G1 F1200 X137.898 Y120.476 E19.03014
G1 X138.566 Y120.312 E19.05873
G1 X139.208 Y119.976 E19.08886
G1 X139.752 Y119.494 E19.11908
G1 X140.163 Y118.897 E19.14921
G1 X140.42 Y118.219 E19.17936
G1 X140.503 Y117.537 E19.20792
G1 X140.422 Y116.786 E19.23932
G1 X140.163 Y116.103 E19.26969
G1 X139.752 Y115.506 E19.29983
G1 X139.203 Y115.019 E19.33034
G1 X138.53 Y114.678 E19.3617
G1 X137.861 Y114.515 E19.39033
G1 X137.131 Y114.515 E19.42068
G1 X136.402 Y114.705 E19.452
G1 X135.792 Y115.024 E19.48062
G1 X135.248 Y115.506 E19.51084
G1 X135.164 Y115.628 E19.517
G1 X135 Y115.866 E19.52901
G1 X134.836 Y115.628 E19.53608
G1 X134.752 Y115.506 E19.54224
G1 X134.203 Y115.019 E19.57275
G1 X133.53 Y114.678 E19.60412
G1 X132.861 Y114.515 E19.63275
G1 X132.131 Y114.515 E19.6631
G1 X131.402 Y114.705 E19.69442
G1 X130.792 Y115.024 E19.72304
G1 X130.248 Y115.506 E19.75325
G1 X130.164 Y115.628 E19.75941
G1 X130 Y115.866 E19.77143
G1 X129.836 Y115.628 E19.7785
G1 X129.752 Y115.506 E19.78465
G1 X129.203 Y115.019 E19.81517
G1 X128.53 Y114.678 E19.84653
G1 X127.861 Y114.515 E19.87516
G1 X127.131 Y114.515 E19.90551
G1 X126.402 Y114.705 E19.93683
G1 X125.792 Y115.024 E19.96545
G1 X125.248 Y115.506 E19.99567
G1 X125.164 Y115.628 E20.00183
G1 X125 Y115.866 E20.01384
G1 X124.836 Y115.628 E20.02091
G1 X124.752 Y115.506 E20.02707
G1 X124.203 Y115.019 E20.05758
G1 X123.53 Y114.678 E20.08895
G1 X122.861 Y114.515 E20.11757
G1 X122.131 Y114.515 E20.14792
G1 X121.402 Y114.705 E20.17924
G1 X120.792 Y115.024 E20.20786
G1 X120.248 Y115.506 E20.23808
G1 X120.164 Y115.628 E20.24424
G1 X120 Y115.866 E20.25626
G1 X119.836 Y115.628 E20.26332
G1 X119.752 Y115.506 E20.26948
G1 X119.203 Y115.019 E20.29999
G1 X118.53 Y114.678 E20.33136
G1 X117.861 Y114.515 E20.35999
G1 X117.131 Y114.515 E20.39034
G1 X116.402 Y114.705 E20.42166
G1 X115.792 Y115.024 E20.45028
G1 X115.248 Y115.506 E20.4805
G1 X114.834 Y116.109 E20.51091
G1 X114.577 Y116.815 E20.54214
G1 X114.492 Y117.505 E20.57105
G1 X114.593 Y118.263 E20.60284
G1 X114.859 Y118.928 E20.63262
G1 X115.248 Y119.494 E20.66117
G1 X115.792 Y119.976 E20.69139
G1 X116.434 Y120.312 E20.72151
G1 X117.144 Y120.487 E20.75191
G1 X117.898 Y120.476 E20.78326
G1 X118.566 Y120.312 E20.81186
G1 X119.208 Y119.976 E20.84199
G1 X119.752 Y119.494 E20.8722
G1 X119.836 Y119.372 E20.87836
G1 X120 Y119.133 E20.89041
G1 X120.164 Y119.372 E20.89748
G1 X120.248 Y119.494 E20.90364
G1 X120.792 Y119.976 E20.93386
G1 X121.434 Y120.312 E20.96398
G1 X122.144 Y120.487 E20.99438
G1 X122.898 Y120.476 E21.02574
G1 X123.566 Y120.312 E21.05433
G1 X124.208 Y119.976 E21.08446
G1 X124.752 Y119.494 E21.11468
G1 X124.836 Y119.372 E21.12083
G1 X125 Y119.133 E21.13289
G1 X125.164 Y119.372 E21.13995
G1 X125.248 Y119.494 E21.14611
G1 X125.792 Y119.976 E21.17633
G1 X126.434 Y120.312 E21.20645
G1 X127.144 Y120.487 E21.23686
G1 X127.898 Y120.476 E21.26821
G1 X128.566 Y120.312 E21.2968
G1 X129.208 Y119.976 E21.32693
G1 X129.752 Y119.494 E21.35715
G1 X129.836 Y119.372 E21.36331
G1 X130 Y119.133 E21.37536
G1 X130.164 Y119.372 E21.38242
G1 X130.248 Y119.494 E21.38858
G1 X130.792 Y119.976 E21.4188
G1 X131.434 Y120.312 E21.44893
G1 X132.144 Y120.487 E21.47933
G1 X132.898 Y120.476 E21.51068
G1 X133.566 Y120.312 E21.53928
G1 X134.208 Y119.976 E21.5694
G1 X134.752 Y119.494 E21.59962
G1 X134.836 Y119.372 E21.60578
G1 X135 Y119.133 E21.61783
G1 X135.164 Y119.372 E21.6249
G1 X135.248 Y119.494 E21.63105
G1 X135.792 Y119.976 E21.66127
G1 X136.434 Y120.312 E21.6914
G1 X137.144 Y120.487 E21.7218
G0 F2100 X137.19 Y120.086
G1 F1200 X137.847 Y120.077 E21.74912
G1 X138.423 Y119.935 E21.77378
G1 X138.979 Y119.644 E21.79987
G1 X139.45 Y119.227 E21.82602
G1 X139.806 Y118.71 E21.85212
G1 X140.029 Y118.123 E21.87823
G1 X140.1 Y117.534 E21.90289
G1 X140.03 Y116.88 E21.93024
G1 X139.806 Y116.29 E21.95648
G1 X139.45 Y115.773 E21.98257
G1 X138.976 Y115.353 E22.0089
G1 X138.39 Y115.056 E22.03622
G1 X137.813 Y114.915 E22.06091
G1 X137.182 Y114.915 E22.08715
G1 X136.547 Y115.081 E22.11443
G1 X136.021 Y115.356 E22.13911
G1 X135.55 Y115.773 E22.16526
G1 X135.197 Y116.287 E22.19119
G1 X135.192 Y116.294 E22.19155
G1 X135.149 Y116.414 E22.19685
G1 X135.004 Y116.811 E22.21442
G1 X134.857 Y116.422 E22.22132
G1 X134.806 Y116.29 E22.22642
G1 X134.801 Y116.283 E22.22677
G1 X134.45 Y115.773 E22.25251
G1 X133.976 Y115.353 E22.27884
G1 X133.39 Y115.056 E22.30616
G1 X132.813 Y114.915 E22.33085
G1 X132.182 Y114.915 E22.35709
G1 X131.547 Y115.081 E22.38437
G1 X131.021 Y115.356 E22.40905
G1 X130.55 Y115.773 E22.4352
G1 X130.197 Y116.287 E22.46113
G1 X130.192 Y116.294 E22.46149
G1 X130.149 Y116.414 E22.46679
G1 X130.004 Y116.811 E22.48436
G1 X129.857 Y116.422 E22.49127
G1 X129.806 Y116.29 E22.49636
G1 X129.801 Y116.283 E22.49672
G1 X129.45 Y115.773 E22.52246
G1 X128.976 Y115.353 E22.54878
G1 X128.39 Y115.056 E22.5761
G1 X127.813 Y114.915 E22.60079
G1 X127.182 Y114.915 E22.62703
G1 X126.547 Y115.081 E22.65431
G1 X126.021 Y115.356 E22.67899
G1 X125.55 Y115.773 E22.70515
G1 X125.197 Y116.287 E22.73107
G1 X125.192 Y116.294 E22.73143
G1 X125.149 Y116.414 E22.73673
G1 X125.004 Y116.811 E22.7543
G1 X124.857 Y116.422 E22.76121
G1 X124.806 Y116.29 E22.7663
G1 X124.801 Y116.283 E22.76666
G1 X124.45 Y115.773 E22.7924
G1 X123.976 Y115.353 E22.81873
G1 X123.39 Y115.056 E22.84604
G1 X122.813 Y114.915 E22.87073
G1 X122.182 Y114.915 E22.89697
G1 X121.547 Y115.081 E22.92425
G1 X121.021 Y115.356 E22.94893
G1 X120.55 Y115.773 E22.97509
G1 X120.197 Y116.287 E23.00101
G1 X120.192 Y116.294 E23.00137
G1 X120.149 Y116.414 E23.00667
G1 X120.004 Y116.811 E23.02424
G1 X119.857 Y116.422 E23.03115
G1 X119.806 Y116.29 E23.03624
G1 X119.801 Y116.283 E23.0366
G1 X119.45 Y115.773 E23.06234
G1 X118.976 Y115.353 E23.08867
G1 X118.39 Y115.056 E23.11598
G1 X117.813 Y114.915 E23.14067
G1 X117.182 Y114.915 E23.16691
G1 X116.547 Y115.081 E23.1942
G1 X116.021 Y115.356 E23.21887
G1 X115.55 Y115.773 E23.24503
G1 X115.192 Y116.294 E23.27131
G1 X114.968 Y116.909 E23.29852
G1 X114.895 Y117.503 E23.3234
G1 X114.983 Y118.161 E23.351
G1 X115.214 Y118.738 E23.37684
G1 X115.55 Y119.227 E23.40151
G1 X116.021 Y119.644 E23.42766
G1 X116.577 Y119.935 E23.45375
G1 X117.19 Y120.086 E23.48
G1 X117.847 Y120.077 E23.50732
G1 X118.423 Y119.935 E23.53198
G1 X118.979 Y119.644 E23.55807
G1 X119.45 Y119.227 E23.58423
G1 X119.79 Y118.733 E23.60916
G1 X119.806 Y118.71 E23.61032
G1 X119.82 Y118.673 E23.61197
G1 X119.846 Y118.606 E23.61496
G1 X119.848 Y118.6 E23.61522
G1 X119.872 Y118.538 E23.61798
G1 X119.999 Y118.201 E23.63295
G1 X120.133 Y118.536 E23.64096
G1 X120.147 Y118.573 E23.64254
G1 X120.157 Y118.599 E23.64365
G1 X120.214 Y118.738 E23.6499
G1 X120.217 Y118.743 E23.65014
G1 X120.55 Y119.227 E23.67457
G1 X121.021 Y119.644 E23.70072
G1 X121.577 Y119.935 E23.72681
G1 X122.19 Y120.086 E23.75306
G1 X122.847 Y120.077 E23.78038
G1 X123.423 Y119.935 E23.80504
G1 X123.979 Y119.644 E23.83113
G1 X124.45 Y119.227 E23.85728
G1 X124.79 Y118.733 E23.88222
G1 X124.806 Y118.71 E23.88338
G1 X124.82 Y118.673 E23.88503
G1 X124.846 Y118.606 E23.88801
G1 X124.848 Y118.6 E23.88828
G1 X124.872 Y118.538 E23.89104
G1 X124.999 Y118.201 E23.90601
G1 X125.133 Y118.536 E23.91401
G1 X125.147 Y118.573 E23.9156
G1 X125.157 Y118.599 E23.91671
G1 X125.214 Y118.738 E23.92296
G1 X125.217 Y118.743 E23.9232
G1 X125.55 Y119.227 E23.94763
G1 X126.021 Y119.644 E23.97378
G1 X126.577 Y119.935 E23.99987
G1 X127.19 Y120.086 E24.02612
G1 X127.847 Y120.077 E24.05343
G1 X128.423 Y119.935 E24.0781
G1 X128.979 Y119.644 E24.10419
G1 X129.45 Y119.227 E24.13034
G1 X129.79 Y118.733 E24.15528
G1 X129.806 Y118.71 E24.15644
G1 X129.82 Y118.673 E24.15809
G1 X129.846 Y118.606 E24.16107
G1 X129.848 Y118.6 E24.16134
G1 X129.872 Y118.538 E24.1641
G1 X129.999 Y118.201 E24.17907
G1 X130.133 Y118.536 E24.18707
G1 X130.147 Y118.573 E24.18866
G1 X130.157 Y118.599 E24.18977
G1 X130.214 Y118.738 E24.19602
G1 X130.217 Y118.743 E24.19626
G1 X130.55 Y119.227 E24.22068
G1 X131.021 Y119.644 E24.24684
G1 X131.577 Y119.935 E24.27293
G1 X132.19 Y120.086 E24.29918
G1 X132.847 Y120.077 E24.32649
G1 X133.423 Y119.935 E24.35116
G1 X133.979 Y119.644 E24.37725
G1 X134.45 Y119.227 E24.4034
G1 X134.79 Y118.733 E24.42833
G1 X134.806 Y118.71 E24.4295
G1 X134.82 Y118.673 E24.43114
G1 X134.846 Y118.606 E24.43413
G1 X134.848 Y118.6 E24.4344
G1 X134.872 Y118.538 E24.43716
G1 X134.999 Y118.201 E24.45213
G1 X135.133 Y118.536 E24.46013
G1 X135.147 Y118.573 E24.46171
G1 X135.157 Y118.599 E24.46283
G1 X135.214 Y118.738 E24.46908
G1 X135.217 Y118.743 E24.46932
G1 X135.55 Y119.227 E24.49374
G1 X136.021 Y119.644 E24.5199
G1 X136.577 Y119.935 E24.54599
G1 X137.19 Y120.086 E24.57224
G0 F2100 X137.236 Y119.685
;TYPE:WALL-OUTER
G1 F1200 X137.796 Y119.678 E24.59552
G1 X138.28 Y119.558 E24.61625
G1 X138.75 Y119.312 E24.63831
G1 X139.148 Y118.96 E24.6604
G1 X139.449 Y118.523 E24.68246
G1 X139.638 Y118.027 E24.70452
G1 X139.697 Y117.531 E24.72529
G1 X139.638 Y116.974 E24.74858
G1 X139.449 Y116.477 E24.77068
G1 X139.148 Y116.04 E24.79275
G1 X138.749 Y115.687 E24.81489
G1 X138.25 Y115.434 E24.83815
G1 X137.765 Y115.315 E24.85892
G1 X137.233 Y115.315 E24.88103
G1 X136.692 Y115.456 E24.90428
G1 X136.25 Y115.688 E24.92503
G1 X135.852 Y116.04 E24.94712
G1 X135.55 Y116.479 E24.96928
G1 X135.359 Y117.003 E24.99246
G1 X135.298 Y117.501 E25.01332
G1 X135.373 Y118.058 E25.03669
G1 X135.569 Y118.548 E25.05863
G1 X135.852 Y118.96 E25.07941
G1 X136.25 Y119.312 E25.1015
G1 X136.72 Y119.558 E25.12356
G1 X137.236 Y119.685 E25.14565
G0 F2100 X137.436 Y119.683
G0 X137.44 Y120.123
G0 X135 Y119.464
G0 X132.189 Y119.879
G0 X132.236 Y119.685
G1 F1200 X132.796 Y119.678 E25.16893
G1 X133.28 Y119.558 E25.18966
G1 X133.75 Y119.312 E25.21172
G1 X134.148 Y118.96 E25.23381
G1 X134.449 Y118.523 E25.25587
G1 X134.638 Y118.027 E25.27794
G1 X134.697 Y117.531 E25.2987
G1 X134.638 Y116.974 E25.32199
G1 X134.449 Y116.477 E25.3441
G1 X134.148 Y116.04 E25.36616
G1 X133.749 Y115.687 E25.38831
G1 X133.25 Y115.434 E25.41157
G1 X132.765 Y115.315 E25.43233
G1 X132.233 Y115.315 E25.45445
G1 X131.692 Y115.456 E25.47769
G1 X131.25 Y115.688 E25.49844
G1 X130.852 Y116.04 E25.52053
G1 X130.55 Y116.479 E25.54269
G1 X130.359 Y117.003 E25.56588
G1 X130.298 Y117.501 E25.58673
G1 X130.373 Y118.058 E25.6101
G1 X130.569 Y118.548 E25.63204
G1 X130.852 Y118.96 E25.65282
G1 X131.25 Y119.312 E25.67491
G1 X131.72 Y119.558 E25.69697
G1 X132.236 Y119.685 E25.71906
G0 F2100 X132.436 Y119.683
G0 X132.44 Y120.123
G0 X130 Y119.464
