;FLAVOR:Marlin
;TIME:2740
;Filament used: 3.06016m
;Layer height: 0.3
;MINX:77.9
;MINY:97.4
;MINZ:0.25
;MAXX:155.6
;MAXY:137.6
;MAXZ:8.95
;Generated with Cura_SteamEngine 4.8.0
M140 S50
M105
M190 S50
M104 S200
M105
M109 S200
M82 ;absolute extrusion mode
G28 ;home
G92 E0 ;Reset Extruder
G1 Z4.0 F3000 ;Move Z Axis up
G92 E0 ;Reset Extruder
G1 X1.1 Y20 Z0.28 F5000.0 ;Move to start position
G1 X1.1 Y200.0 Z0.28 F1500.0 E15 ;Draw the first line
G1 X1.4 Y200.0 Z0.28 F5000.0 ;Move to side a little
G1 X1.4 Y20 Z0.28 F1500.0 E30 ;Draw the second line
G92 E0 ;Reset Extruder
G1 Z2.0 F3000 ;Move Z Axis up
G92 E0
G92 E0
G1 F4200 E-5
;LAYER_COUNT:30
;LAYER:0
M107
G0 F2100 X80.78 Y98.182 Z0.25
;TYPE:SKIRT
G1 F4200 E0
G1 F1500 X81.225 Y97.882 E0.02231
G1 X81.709 Y97.652 E0.04459
G1 X82.222 Y97.496 E0.06688
G1 X82.908 Y97.41 E0.09563
G1 X83.33 Y97.4 E0.11318
G1 X151.345 Y97.4 E2.94091
G1 X152.043 Y97.41 E2.96993
G1 X152.577 Y97.458 E2.99223
G1 X153.098 Y97.584 E3.01451
G1 X153.595 Y97.787 E3.03683
G1 X154.056 Y98.061 E3.05913
G1 X154.471 Y98.4 E3.08141
G1 X154.831 Y98.798 E3.10372
G1 X155.128 Y99.244 E3.12599
G1 X155.356 Y99.73 E3.14831
G1 X155.508 Y100.244 E3.1706
G1 X155.59 Y100.909 E3.19845
G1 X155.6 Y101.33 E3.21596
G1 X155.6 Y133.309 E4.54549
G1 X155.591 Y134.036 E4.57572
G1 X155.544 Y134.57 E4.59801
G1 X155.419 Y135.091 E4.62028
G1 X155.217 Y135.588 E4.64259
G1 X154.944 Y136.05 E4.6649
G1 X154.606 Y136.466 E4.68718
G1 X154.209 Y136.827 E4.70949
G1 X153.763 Y137.125 E4.73179
G1 X153.278 Y137.353 E4.75407
G1 X152.764 Y137.507 E4.77638
G1 X152.092 Y137.59 E4.80453
G1 X151.67 Y137.6 E4.82208
G1 X83.661 Y137.6 E7.64957
G1 X82.963 Y137.591 E7.67859
G1 X82.428 Y137.544 E7.70092
G1 X81.907 Y137.418 E7.7232
G1 X81.41 Y137.216 E7.74551
G1 X80.949 Y136.943 E7.76778
G1 X80.533 Y136.604 E7.79009
G1 X80.172 Y136.208 E7.81237
G1 X79.874 Y135.762 E7.83467
G1 X79.646 Y135.276 E7.85699
G1 X79.493 Y134.762 E7.87929
G1 X79.41 Y134.088 E7.90752
G1 X79.4 Y133.658 E7.9254
G1 X79.4 Y129.749 E8.08792
G1 X79.361 Y126.968 E8.20355
G1 X79.245 Y124.24 E8.31707
G1 X79.051 Y121.51 E8.43086
G1 X78.786 Y118.834 E8.54266
G1 X78.437 Y116.106 E8.657
G1 X77.992 Y113.286 E8.77569
G1 X77.91 Y112.59 E8.80483
G1 X77.9 Y112.17 E8.82229
G1 X77.9 Y110.151 E8.90623
G1 X77.911 Y109.445 E8.93559
G1 X77.99 Y108.749 E8.96471
G1 X78.109 Y108.192 E8.98839
G1 X78.651 Y105.491 E9.10293
G1 X79.108 Y102.826 E9.21534
G1 X79.393 Y100.828 E9.29925
G1 X79.454 Y100.444 E9.31541
G1 X79.577 Y99.922 E9.33771
G1 X79.776 Y99.425 E9.35997
G1 X80.048 Y98.962 E9.38229
G1 X80.385 Y98.545 E9.40458
G1 X80.78 Y98.182 E9.42689
G0 F2100 X81.143 Y98.409
G1 F1500 X81.576 Y98.148 E9.44791
G1 X82.044 Y97.958 E9.46891
G1 X82.537 Y97.844 E9.48994
G1 X83.24 Y97.801 E9.51923
G1 X151.339 Y97.8 E12.35045
G1 X152.037 Y97.81 E12.37948
G1 X152.54 Y97.857 E12.40048
G1 X153.03 Y97.983 E12.42151
G1 X153.494 Y98.185 E12.44255
G1 X153.92 Y98.457 E12.46357
G1 X154.298 Y98.792 E12.48457
G1 X154.618 Y99.183 E12.50557
G1 X154.873 Y99.62 E12.52661
G1 X155.056 Y100.091 E12.54762
G1 X155.163 Y100.585 E12.56863
G1 X155.199 Y101.24 E12.5959
G1 X155.2 Y133.304 E13.92897
G1 X155.191 Y134.031 E13.9592
G1 X155.145 Y134.534 E13.9802
G1 X155.02 Y135.024 E14.00122
G1 X154.819 Y135.488 E14.02224
G1 X154.548 Y135.915 E14.04327
G1 X154.213 Y136.294 E14.0643
G1 X153.823 Y136.615 E14.0853
G1 X153.387 Y136.871 E14.10632
G1 X152.916 Y137.054 E14.12733
G1 X152.422 Y137.162 E14.14835
G1 X151.76 Y137.199 E14.17592
G1 X83.666 Y137.2 E17.00694
G1 X82.968 Y137.191 E17.03596
G1 X82.464 Y137.144 E17.057
G1 X81.974 Y137.019 E17.07803
G1 X81.51 Y136.818 E17.09905
G1 X81.084 Y136.547 E17.12004
G1 X80.705 Y136.212 E17.14107
G1 X80.384 Y135.821 E17.1621
G1 X80.129 Y135.385 E17.1831
G1 X79.945 Y134.914 E17.20413
G1 X79.838 Y134.42 E17.22514
G1 X79.801 Y133.744 E17.25329
G1 X79.8 Y129.743 E17.41963
G1 X79.76 Y126.946 E17.53593
G1 X79.645 Y124.229 E17.64899
G1 X79.45 Y121.482 E17.76348
G1 X79.182 Y118.777 E17.87649
G1 X78.834 Y116.059 E17.99042
G1 X78.382 Y113.189 E18.11121
G1 X78.31 Y112.579 E18.13675
G1 X78.3 Y112.17 E18.15376
G1 X78.3 Y110.157 E18.23745
G1 X78.311 Y109.451 E18.2668
G1 X78.382 Y108.832 E18.29271
G1 X78.501 Y108.275 E18.31639
G1 X79.038 Y105.6 E18.42982
G1 X79.505 Y102.879 E18.5446
G1 X79.788 Y100.891 E18.62808
G1 X79.849 Y100.507 E18.64425
G1 X79.967 Y100.015 E18.66528
G1 X80.162 Y99.549 E18.68628
G1 X80.427 Y99.119 E18.70728
G1 X80.757 Y98.736 E18.7283
G1 X81.143 Y98.409 E18.74934
G0 F2100 X81.7 Y109.7
;TYPE:SUPPORT
G1 F1200 X82.1 Y109.7 E18.76597
G1 X82.1 Y112.3 E18.87406
G1 X81.7 Y112.3 E18.89069
G1 X81.7 Y109.7 E18.99879
G1 F4200 E13.99879
;MESH:esp32-body-2.stl
G0 F2100 X84.21 Y109.7
G0 X151 Y133
;TYPE:WALL-INNER
G1 F4200 E18.99879
G1 F1200 X84 Y133 E21.78432
G1 X84 Y102 E23.07315
G1 X151 Y102 E25.85869
G1 X151 Y133 E27.14752
G0 F2100 X151.4 Y133.4
G1 F1200 X83.6 Y133.4 E29.96632
G1 X83.6 Y101.6 E31.28841
G1 X151.4 Y101.6 E34.1072
G1 X151.4 Y133.4 E35.42929
G0 F2100 X151.8 Y133.8
;TYPE:WALL-OUTER
G1 F1200 X83.2 Y133.8 E38.28135
G1 X83.2 Y101.2 E39.6367
G1 X151.8 Y101.2 E42.48876
G1 X151.8 Y133.8 E43.84411
G0 F2100 X151.6 Y133.8
G0 X151.36 Y133.36
G0 X150.89 Y132.61
G0 X150.61 Y132.61
;TYPE:SKIN
G1 F1200 X84.39 Y132.61 E46.59722
G1 X84.39 Y102.39 E47.85362
G1 X150.61 Y102.39 E50.60672
G1 X150.61 Y132.61 E51.86313
G0 F2100 X150.89 Y132.61
G0 X150.89 Y102.912
G0 X150.429 Y102.912
G1 F1200 X150.087 Y102.57 E51.88323
G0 F2100 X149.521 Y102.57
G1 F1200 X150.429 Y103.478 E51.93662
G0 F2100 X150.429 Y104.043
G1 F1200 X148.956 Y102.57 E52.02323
G0 F2100 X148.39 Y102.57
G1 F1200 X150.429 Y104.609 E52.14311
G0 F2100 X150.429 Y105.175
G1 F1200 X147.824 Y102.57 E52.29628
G0 F2100 X147.259 Y102.57
G1 F1200 X150.429 Y105.74 E52.48266
G0 F2100 X150.429 Y106.306
G1 F1200 X146.693 Y102.57 E52.70232
G0 F2100 X146.127 Y102.57
G1 F1200 X150.429 Y106.872 E52.95526
G0 F2100 X150.429 Y107.437
G1 F1200 X145.562 Y102.57 E53.24143
G0 F2100 X144.996 Y102.57
G1 F1200 X150.429 Y108.003 E53.56087
G0 F2100 X150.429 Y108.569
G1 F1200 X144.43 Y102.57 E53.91358
G0 F2100 X143.865 Y102.57
G1 F1200 X150.429 Y109.134 E54.29952
G0 F2100 X150.429 Y109.7
G1 F1200 X143.299 Y102.57 E54.71874
G0 F2100 X142.733 Y102.57
G1 F1200 X150.429 Y110.266 E55.17123
G0 F2100 X150.429 Y110.831
G1 F1200 X142.168 Y102.57 E55.65695
G0 F2100 X141.602 Y102.57
G1 F1200 X150.429 Y111.397 E56.17594
G0 F2100 X150.429 Y111.963
G1 F1200 X141.036 Y102.57 E56.72821
G0 F2100 X140.471 Y102.57
G1 F1200 X150.429 Y112.528 E57.31371
G0 F2100 X150.429 Y113.094
G1 F1200 X139.905 Y102.57 E57.93248
G0 F2100 X139.339 Y102.57
G1 F1200 X150.429 Y113.66 E58.58453
G0 F2100 X150.429 Y114.226
G1 F1200 X138.773 Y102.57 E59.26986
G0 F2100 X138.208 Y102.57
G1 F1200 X150.429 Y114.791 E59.9884
G0 F2100 X150.429 Y115.357
G1 F1200 X137.642 Y102.57 E60.74023
G0 F2100 X137.076 Y102.57
G1 F1200 X150.429 Y115.923 E61.52534
G0 F2100 X150.429 Y116.488
G1 F1200 X136.511 Y102.57 E62.34366
G0 F2100 X135.945 Y102.57
G1 F1200 X150.429 Y117.054 E63.19526
G0 F2100 X150.429 Y117.62
G1 F1200 X135.379 Y102.57 E64.08015
G0 F2100 X134.814 Y102.57
G1 F1200 X150.429 Y118.185 E64.99825
G0 F2100 X150.429 Y118.751
G1 F1200 X134.248 Y102.57 E65.94963
G0 F2100 X133.682 Y102.57
G1 F1200 X150.429 Y119.317 E66.93429
G0 F2100 X150.429 Y119.882
G1 F1200 X133.117 Y102.57 E67.95217
G0 F2100 X132.551 Y102.57
G1 F1200 X150.429 Y120.448 E69.00333
G0 F2100 X150.429 Y121.014
G1 F1200 X131.985 Y102.57 E70.08776
G0 F2100 X131.42 Y102.57
G1 F1200 X150.429 Y121.579 E71.20542
G0 F2100 X150.429 Y122.145
G1 F1200 X130.854 Y102.57 E72.35635
G0 F2100 X130.288 Y102.57
G1 F1200 X150.429 Y122.711 E73.54057
G0 F2100 X150.429 Y123.276
G1 F1200 X129.722 Y102.57 E74.75803
G0 F2100 X129.157 Y102.57
G1 F1200 X150.429 Y123.842 E76.00874
G0 F2100 X150.429 Y124.408
G1 F1200 X128.591 Y102.57 E77.29273
G0 F2100 X128.025 Y102.57
G1 F1200 X150.429 Y124.974 E78.61
G0 F2100 X150.429 Y125.539
G1 F1200 X127.46 Y102.57 E79.96049
G0 F2100 X126.894 Y102.57
G1 F1200 X150.429 Y126.105 E81.34426
G0 F2100 X150.429 Y126.671
G1 F1200 X126.328 Y102.57 E82.76131
G0 F2100 X125.763 Y102.57
G1 F1200 X150.429 Y127.236 E84.21157
G0 F2100 X150.429 Y127.802
G1 F1200 X125.197 Y102.57 E85.69512
G0 F2100 X124.631 Y102.57
G1 F1200 X150.429 Y128.368 E87.21194
G0 F2100 X150.429 Y128.933
G1 F1200 X124.066 Y102.57 E88.76198
G0 F2100 X123.5 Y102.57
G1 F1200 X150.429 Y129.499 E90.34531
G0 F2100 X150.429 Y130.065
G1 F1200 X122.934 Y102.57 E91.96191
G0 F2100 X122.369 Y102.57
G1 F1200 X150.429 Y130.63 E93.61173
G0 F2100 X150.429 Y131.196
G1 F1200 X121.803 Y102.57 E95.29483
G0 F2100 X121.237 Y102.57
G1 F1200 X150.429 Y131.762 E97.0112
G0 F2100 X150.429 Y132.327
G1 F1200 X120.672 Y102.57 E98.7608
G0 F2100 X120.106 Y102.57
G1 F1200 X149.966 Y132.429 E100.51643
G0 F2100 X149.4 Y132.429
G1 F1200 X119.54 Y102.57 E102.27205
G0 F2100 X118.974 Y102.57
G1 F1200 X148.834 Y132.429 E104.02767
G0 F2100 X148.268 Y132.429
G1 F1200 X118.409 Y102.57 E105.78327
G0 F2100 X117.843 Y102.57
G1 F1200 X147.703 Y132.429 E107.53889
G0 F2100 X147.137 Y132.429
G1 F1200 X117.277 Y102.569 E109.29455
G0 F2100 X116.711 Y102.569
G1 F1200 X146.571 Y132.429 E111.0502
G0 F2100 X146.006 Y132.429
G1 F1200 X116.145 Y102.569 E112.80588
G0 F2100 X115.58 Y102.569
G1 F1200 X145.44 Y132.429 E114.56154
G0 F2100 X144.874 Y132.429
G1 F1200 X115.014 Y102.569 E116.31719
G0 F2100 X114.448 Y102.569
G1 F1200 X144.309 Y132.429 E118.07287
G0 F2100 X143.743 Y132.429
G1 F1200 X113.883 Y102.569 E119.82853
G0 F2100 X113.317 Y102.569
G1 F1200 X143.177 Y132.429 E121.58418
G0 F2100 X142.612 Y132.429
G1 F1200 X112.751 Y102.569 E123.33986
G0 F2100 X112.186 Y102.569
G1 F1200 X142.046 Y132.429 E125.09552
G0 F2100 X141.48 Y132.429
G1 F1200 X111.62 Y102.569 E126.85117
G0 F2100 X111.054 Y102.569
G1 F1200 X140.915 Y132.429 E128.60685
G0 F2100 X140.349 Y132.429
G1 F1200 X110.488 Y102.569 E130.36254
G0 F2100 X109.923 Y102.569
G1 F1200 X139.783 Y132.429 E132.11819
G0 F2100 X139.218 Y132.429
G1 F1200 X109.357 Y102.569 E133.87387
G0 F2100 X108.791 Y102.569
G1 F1200 X138.652 Y132.429 E135.62956
G0 F2100 X138.086 Y132.429
G1 F1200 X108.226 Y102.569 E137.38521
G0 F2100 X107.66 Y102.569
G1 F1200 X137.52 Y132.429 E139.14086
G0 F2100 X136.955 Y132.429
G1 F1200 X107.094 Y102.569 E140.89655
G0 F2100 X106.529 Y102.569
G1 F1200 X136.389 Y132.429 E142.6522
G0 F2100 X135.823 Y132.429
G1 F1200 X105.963 Y102.569 E144.40785
G0 F2100 X105.397 Y102.569
G1 F1200 X135.258 Y132.429 E146.16354
G0 F2100 X134.692 Y132.429
G1 F1200 X104.832 Y102.569 E147.91919
G0 F2100 X104.266 Y102.569
G1 F1200 X134.126 Y132.429 E149.67484
G0 F2100 X133.561 Y132.429
G1 F1200 X103.7 Y102.569 E151.43053
G0 F2100 X103.135 Y102.569
G1 F1200 X132.995 Y132.429 E153.18618
G0 F2100 X132.429 Y132.429
G1 F1200 X102.569 Y102.569 E154.94183
G0 F2100 X102.003 Y102.569
G1 F1200 X131.864 Y132.429 E156.69752
G0 F2100 X131.298 Y132.429
G1 F1200 X101.438 Y102.569 E158.45317
G0 F2100 X100.872 Y102.569
G1 F1200 X130.732 Y132.429 E160.20882
G0 F2100 X130.167 Y132.429
G1 F1200 X100.306 Y102.569 E161.96451
G0 F2100 X99.74 Y102.569
G1 F1200 X129.601 Y132.429 E163.72019
G0 F2100 X129.035 Y132.429
G1 F1200 X99.175 Y102.569 E165.47584
G0 F2100 X98.609 Y102.569
G1 F1200 X128.469 Y132.429 E167.2315
G0 F2100 X127.904 Y132.429
G1 F1200 X98.043 Y102.569 E168.98718
G0 F2100 X97.478 Y102.569
G1 F1200 X127.338 Y132.429 E170.74283
G0 F2100 X126.772 Y132.429
G1 F1200 X96.912 Y102.569 E172.49849
G0 F2100 X96.346 Y102.569
G1 F1200 X126.207 Y132.429 E174.25417
G0 F2100 X125.641 Y132.429
G1 F1200 X95.781 Y102.569 E176.00982
G0 F2100 X95.215 Y102.569
G1 F1200 X125.075 Y132.429 E177.76548
G0 F2100 X124.51 Y132.429
G1 F1200 X94.649 Y102.569 E179.52116
G0 F2100 X94.084 Y102.569
G1 F1200 X123.944 Y132.429 E181.27681
G0 F2100 X123.378 Y132.429
G1 F1200 X93.518 Y102.569 E183.03247
G0 F2100 X92.952 Y102.569
G1 F1200 X122.813 Y132.429 E184.78815
G0 F2100 X122.247 Y132.429
G1 F1200 X92.387 Y102.569 E186.5438
G0 F2100 X91.821 Y102.569
G1 F1200 X121.681 Y132.429 E188.29946
G0 F2100 X121.116 Y132.429
G1 F1200 X91.255 Y102.569 E190.05514
G0 F2100 X90.689 Y102.569
G1 F1200 X120.55 Y132.429 E191.81082
G0 F2100 X119.984 Y132.429
G1 F1200 X90.124 Y102.569 E193.56648
G0 F2100 X89.558 Y102.569
G1 F1200 X119.419 Y132.429 E195.32216
G0 F2100 X118.853 Y132.429
G1 F1200 X88.992 Y102.569 E197.07784
G0 F2100 X88.427 Y102.569
G1 F1200 X118.287 Y132.429 E198.8335
G0 F2100 X117.721 Y132.429
G1 F1200 X87.861 Y102.569 E200.58915
G0 F2100 X87.295 Y102.569
G1 F1200 X117.156 Y132.429 E202.34483
G0 F2100 X116.59 Y132.429
G1 F1200 X86.73 Y102.569 E204.10049
G0 F2100 X86.164 Y102.569
G1 F1200 X116.024 Y132.429 E205.85614
G0 F2100 X115.459 Y132.429
G1 F1200 X85.598 Y102.569 E207.61182
G0 F2100 X85.033 Y102.569
G1 F1200 X114.893 Y132.429 E209.36748
G0 F2100 X114.327 Y132.429
G1 F1200 X84.569 Y102.671 E211.11713
G0 F2100 X84.569 Y103.237
G1 F1200 X113.762 Y132.429 E212.83354
G0 F2100 X113.196 Y132.429
G1 F1200 X84.569 Y103.803 E214.51667
G0 F2100 X84.569 Y104.368
G1 F1200 X112.63 Y132.429 E216.16655
G0 F2100 X112.065 Y132.429
G1 F1200 X84.569 Y104.934 E217.78318
G0 F2100 X84.569 Y105.5
G1 F1200 X111.499 Y132.429 E219.36653
G0 F2100 X110.933 Y132.429
G1 F1200 X84.569 Y106.066 E220.9166
G0 F2100 X84.569 Y106.631
G1 F1200 X110.368 Y132.429 E222.43345
G0 F2100 X109.802 Y132.429
G1 F1200 X84.569 Y107.197 E223.91703
G0 F2100 X84.569 Y107.763
G1 F1200 X109.236 Y132.429 E225.36732
G0 F2100 X108.67 Y132.429
G1 F1200 X84.569 Y108.328 E226.78437
G0 F2100 X84.569 Y108.894
G1 F1200 X108.105 Y132.429 E228.16817
G0 F2100 X107.539 Y132.429
G1 F1200 X84.569 Y109.46 E229.51869
G0 F2100 X84.569 Y110.025
G1 F1200 X106.973 Y132.429 E230.83596
G0 F2100 X106.408 Y132.429
G1 F1200 X84.569 Y110.591 E232.11998
G0 F2100 X84.569 Y111.157
G1 F1200 X105.842 Y132.429 E233.37072
G0 F2100 X105.276 Y132.429
G1 F1200 X84.569 Y111.722 E234.58821
G0 F2100 X84.569 Y112.288
G1 F1200 X104.711 Y132.429 E235.77245
G0 F2100 X104.145 Y132.429
G1 F1200 X84.569 Y112.854 E236.92342
G0 F2100 X84.569 Y113.419
G1 F1200 X103.579 Y132.429 E238.04113
G0 F2100 X103.014 Y132.429
G1 F1200 X84.569 Y113.985 E239.1256
G0 F2100 X84.569 Y114.551
G1 F1200 X102.448 Y132.429 E240.17678
G0 F2100 X101.882 Y132.429
G1 F1200 X84.569 Y115.116 E241.19472
G0 F2100 X84.569 Y115.682
G1 F1200 X101.317 Y132.429 E242.17941
G0 F2100 X100.751 Y132.429
G1 F1200 X84.569 Y116.248 E243.13082
G0 F2100 X84.569 Y116.814
G1 F1200 X100.185 Y132.429 E244.04895
G0 F2100 X99.62 Y132.429
G1 F1200 X84.569 Y117.379 E244.93387
G0 F2100 X84.569 Y117.945
G1 F1200 X99.054 Y132.429 E245.7855
G0 F2100 X98.488 Y132.429
G1 F1200 X84.569 Y118.511 E246.60385
G0 F2100 X84.569 Y119.076
G1 F1200 X97.922 Y132.429 E247.38896
G0 F2100 X97.357 Y132.429
G1 F1200 X84.569 Y119.642 E248.14081
G0 F2100 X84.569 Y120.208
G1 F1200 X96.791 Y132.429 E248.85939
G0 F2100 X96.225 Y132.429
G1 F1200 X84.569 Y120.773 E249.54472
G0 F2100 X84.569 Y121.339
G1 F1200 X95.66 Y132.429 E250.1968
G0 F2100 X95.094 Y132.429
G1 F1200 X84.569 Y121.905 E250.8156
G0 F2100 X84.569 Y122.47
G1 F1200 X94.528 Y132.429 E251.40115
G0 F2100 X93.963 Y132.429
G1 F1200 X84.569 Y123.036 E251.95345
G0 F2100 X84.569 Y123.602
G1 F1200 X93.397 Y132.429 E252.47247
G0 F2100 X92.831 Y132.429
G1 F1200 X84.569 Y124.167 E252.95825
G0 F2100 X84.569 Y124.733
G1 F1200 X92.266 Y132.429 E253.41077
G0 F2100 X91.7 Y132.429
G1 F1200 X84.569 Y125.299 E253.83002
G0 F2100 X84.569 Y125.865
G1 F1200 X91.134 Y132.429 E254.21599
G0 F2100 X90.569 Y132.429
G1 F1200 X84.569 Y126.43 E254.56873
G0 F2100 X84.569 Y126.996
